!!!COM: Palestrina, Giovanni Perluigi da
!!!OPR: Missa Eripe me de inimicis
!!!OMD: Kyrie
!!!OTL: Christe
**kern	**kern	**kern	**kern
*Itenor	*Itenor	*Icalto	*Icant
!Tenor 2	!Tenor 1	!Altus	!Cantus
*clefGv2	*clefGv2	*clefG2	*clefG2
*k[]	*k[]	*k[]	*k[]
*D:dor	*D:dor	*D:dor	*D:dor
*M4/2	*M4/2	*M4/2	*M4/2
=26	=26	=26	=26
0r	0r	1d	0r
.	.	2.a	.
.	.	4a	.
=27	=27	=27	=27
0r	1r	2g	0r
.	.	2g	.
.	1A	2a	.
.	.	[2cc	.
=28	=28	=28	=28
0r	2.d	2cc]	0r
.	.	2b-	.
.	4d	.	.
.	2c	2a	.
.	2c	2g	.
=29	=29	=29	=29
0r	2d	2.f	[0a
.	1f	.	.
.	.	4e	.
.	.	2d	.
.	2e	2c	.
=30	=30	=30	=30
0r	2d	4f	1a]
.	.	4g	.
.	2c	1a	.
.	1B-	.	2.dd
.	.	2g	.
.	.	.	4dd
=31	=31	=31	=31
2r	2A	0a	2cc
2A	2e	.	2cc
2.d	2f	.	2dd
.	2f	.	[2ff
4d	.	.	.
=32	=32	=32	=32
2c	1g	2r	2ff]
2c	.	2cc	2ee
2d	1f	2b-	1dd
[2f	.	[2a	.
=33	=33	=33	=33
2f]	0r	2a]	1cc
2e	.	2g	.
2d	.	2f	2b-
2c	.	2e	[2a
=34	=34	=34	=34
1B-	2r	1d	2a]
.	1d	.	2g
1A	.	2e	2.a
.	2c	2e	.
.	.	.	4b
=35	=35	=35	=35
0r	4A	2.a	4cc
.	4B	.	4dd
.	4c	.	2.ee
.	4d	4a	.
.	1e	2g	.
.	.	.	4ff
.	.	2g	4gg
.	.	.	4ee
=36	=36	=36	=36
0r	2d	2a	2ff
.	2c	1cc	2ee
.	1g	.	1dd
.	.	2b	.
=37	=37	=37	=37
2r	1c	2.a	2cc
2A	.	.	2.ee
.	.	4g	.
2.d	1r	1f	.
.	.	.	8dd
.	.	.	8cc
.	.	.	2dd
4d	.	.	.
=38	=38	=38	=38
2c	1A	2.e	1ee
2c	.	.	.
.	.	8d	.
.	.	8e	.
2d	2.d	2f	[1a
[2f	.	2d	.
.	4d	.	.
=39	=39	=39	=39
2f]	2c#	1A	0a]
2e	2c#	.	.
[1d	2d	2r	.
.	[2f	2d	.
=40	=40	=40	=40
2d]	2f]	2.a	2r
2c	2e	.	2a
.	.	4a	.
1B-	2.d	2g	2.dd
.	.	2g	.
.	4e	.	4dd
=41	=41	=41	=41
1A	2f	2a	2cc
.	2e	1cc	2cc
1r	1d	.	2dd
.	.	2b-	[2ff
=42	=42	=42	=42
0r	1c	2a	2ff]
.	.	2g	2ee
.	1d	2f	2dd
.	.	[2a	2cc
=43	=43	=43	=43
1r	1e	2a]	1b
.	.	2g	.
2r	1r	4f	[1a
.	.	4e	.
[2f	.	4d	.
.	.	4c	.
=44	=44	=44	=44
2f]	1r	2d	0a]
2e	.	2c	.
2d	2r	2f	.
2c	[2a	2e	.
=45	=45	=45	=45
1B-	2a]	1d	1r
.	2g	.	.
1A	2f	1a	2r
.	2e	.	[2cc
=46	=46	=46	=46
0r	1d	2r	2cc]
.	.	1f	2b-
.	1c	.	2a
.	.	2e	2g
=47	=47	=47	=47
1.a	2r	1d	4f
.	.	.	4g
.	1f	.	4a
.	.	.	4b
.	.	1c	4cc
.	.	.	4dd
2g	2e	.	4ee
.	.	.	4cc
=48	=48	=48	=48
2f	2d	2r	2dd
2e	2c	1a	2.ee
2f	1B-	.	.
.	.	.	4dd
4e	.	2g	[2dd
4d	.	.	.
=49	=49	=49	=49
1e	1A	1a	2dd]
.	.	.	2cc#
1d	2r	2.f	2dd
.	[2d	.	[2ff
.	.	4e	.
=50	=50	=50	=50
1r	2d]	2d	2ff]
.	2c	2e	2ee
2r	2B-	1f	2dd
[2f	2A	.	2cc
=51	=51	=51	=51
2f]	1G	1g	1.b-
2e	.	.	.
2d	1F	2r	.
2c	.	[2cc	2a
=52	=52	=52	=52
1g	1G	2cc]	1dd
.	.	2b-	.
1e	2A	2a	2cc
.	2c	2g	2cc
=53	=53	=53	=53
2r	4F	1f	4a
.	4G	.	4b
2a	4A	.	4cc
.	4B	.	4dd
2a	1c	1e	4ee
.	.	.	4ff
2g	.	.	[2ee
=54	=54	=54	=54
2.f	0d	0a	2ee]
.	.	.	4dd
4e	.	.	4cc#
1f	.	.	1dd
=55	=55	=55	=55
[0e	[0A	[0a	[0cc#
=56	=56	=56	=56
0e]	0A]	0a]	0cc#]
==	==	==	==
*-	*-	*-	*-
!!!CDT: 1525/^1526/-1594/2/2
!!!OCY: Italia
!!!AGN: Mass (Parody)
!!!AST: renaissance, vocal
!!!ASW: Motet 1559 (Maillard)
!!!PWK: Masses, Book 4
!!!RNB: Cadence finals: A
!!!YOR: Le Opere Complete, v. 10, p. 79
!!!YOO: Rome, Italy: Fratelli Scalera
!!!END: 1992//
!!!EED: John Miller
!!!YEC: Copyright 2000, John Miller
!!!YEN: United States of America
!!!YEM: Rights to all derivative electronic formats reserved.
!!!YEM: Refer to licensing agreement for further details.
!!!YEM: This file must be accompanied by the licensing agreement.
!!!YEM: A copy of the licensing agreement may be found at http://www.music-cog.ohio-state.edu/HumdrumDatabases/Palestrina/license.txt
!!!EMD: converted to Humdrum by Bret Aarden
